images/main/index/modal/icon-modal-ok.svg

<svg width="16" height="15" viewBox="0 0 16 15" fill="none" xmlns="http://www.w3.org/2000/svg">
<path d="M3.95703 7.75166L3.88825 7.68604L3.81923 7.75141L2.93123 8.59258L2.85486 8.66492L2.93097 8.73753L6.42671 12.0724L6.49574 12.1382L6.56476 12.0724L14.069 4.91352L14.1449 4.84116L14.069 4.76881L13.1873 3.92764L13.1183 3.86183L13.0493 3.92761L6.49577 10.1735L3.95703 7.75166Z" fill="white" stroke="white" stroke-width="0.2"/>
</svg>

<svg fill="#fff" xmlns="http://www.w3.org/2000/svg">
  <path d="M3.957 7.752l-.069-.066-.069.065-.888.842-.076.072.076.073 3.496 3.334.069.066.069-.066 7.504-7.158.076-.073-.076-.072-.882-.841-.069-.066-.069.066-6.553 6.246-2.539-2.422z" fill="#fff" stroke="#fff" stroke-width=".2"/>
</svg>
